dist/assets/img/pay/2.svg

<svg width="80" height="70" viewBox="0 0 80 70" fill="none" xmlns="http://www.w3.org/2000/svg">
<path d="M80 54.9994C80 57.2848 77.8828 59.1375 75.2711 59.1375H4.72891C2.11719 59.1375 0 57.2845 0 54.9994V15.0003C0 12.7149 2.11719 10.8624 4.72891 10.8624H75.2709C77.8828 10.8624 79.9998 12.715 79.9998 15.0003L80 54.9994Z" fill="#E7E8E3"/>
<path opacity="0.15" d="M3.36203 54.9994V15.0003C3.36203 12.7149 5.47953 10.8624 8.09125 10.8624H4.72875C2.11719 10.8624 0 12.7152 0 15.0003V54.9994C0 57.2848 2.11719 59.1375 4.72891 59.1375H8.09141C5.47969 59.1375 3.36203 57.2845 3.36203 54.9994Z" fill="#202121"/>
<path d="M35.1123 29.9675C35.1123 26.3469 37.0183 23.1167 40 21.0014C37.7337 19.3937 34.8467 18.4293 31.702 18.4293C24.4194 18.4293 18.5156 23.5949 18.5156 29.9675C18.5156 36.3397 24.4194 41.5052 31.702 41.5052C34.8467 41.5052 37.7337 40.5415 40 38.9339C37.0183 36.8178 35.1123 33.5877 35.1123 29.9675Z" fill="#EA001B"/>
<path d="M48.2983 18.4291C45.1536 18.4291 42.2662 19.3934 40 21.0012C42.9819 23.1164 44.8878 26.3468 44.8878 29.9674C44.8878 33.5875 42.9819 36.8178 40 38.9337C42.2662 40.5412 45.1536 41.5049 48.2983 41.5049C55.5809 41.5049 61.4844 36.3394 61.4844 29.9672C61.4844 23.5951 55.5809 18.4291 48.2983 18.4291Z" fill="#0099DF"/>
<path d="M44.8878 29.9675C44.8878 26.347 42.9818 23.1167 40 21.0014C37.0182 23.1166 35.1123 26.347 35.1123 29.9675C35.1123 33.5877 37.0182 36.818 40 38.9338C42.9818 36.8178 44.8878 33.5877 44.8878 29.9675Z" fill="#6C6BBD"/>
<path d="M19.7043 46.5699C18.7146 46.5699 17.7661 47.0296 17.1442 47.8057C16.4998 47.0187 15.5736 46.5699 14.5854 46.5699C13.9928 46.5699 13.3381 46.8081 12.775 47.2266L12.5067 46.7924C12.4917 46.7679 12.4621 46.7525 12.4303 46.7525H10.797C10.7492 46.7525 10.71 46.7865 10.71 46.8286V53.3917C10.71 53.4336 10.749 53.4678 10.797 53.4678H12.8173C12.8654 53.4678 12.9043 53.4338 12.9043 53.3917V49.6249C13.1292 48.8749 13.6751 48.4274 14.3665 48.4274C15.2243 48.4274 15.8957 49.1766 15.8957 50.133V53.3917C15.8957 53.4336 15.9348 53.4678 15.9828 53.4678H17.8687C17.9168 53.4678 17.9557 53.4338 17.9557 53.3917V50.0289C17.9875 49.2588 18.5746 48.4274 19.4686 48.4274C20.3264 48.4274 20.9978 49.1765 20.9978 50.133V53.3917C20.9978 53.4336 21.0368 53.4678 21.0848 53.4678H22.9707C23.0189 53.4678 23.0578 53.4338 23.0578 53.3917V50.133C23.0575 48.1683 21.5536 46.5699 19.7043 46.5699Z" fill="#34495E"/>
<path d="M32.2467 46.7528H30.6305C30.5905 46.7528 30.555 46.777 30.5459 46.8114L30.4102 47.3151C29.7216 46.8239 28.8606 46.5549 27.97 46.5549C25.7961 46.5549 24.0273 48.1465 24.0273 50.1029C24.0273 52.0592 25.7961 53.6509 27.97 53.6509C28.8456 53.6509 29.6925 53.3907 30.3752 52.9154V53.3921C30.3752 53.4341 30.4142 53.4683 30.4622 53.4683H32.2469C32.295 53.4683 32.3339 53.4342 32.3339 53.3921V46.8291C32.3336 46.7868 32.2948 46.7528 32.2467 46.7528ZM28.2395 51.8084C27.7573 51.8084 27.313 51.6373 26.9577 51.3164C26.6133 50.9755 26.4237 50.5445 26.4237 50.1028C26.4237 49.653 26.618 49.2112 26.955 48.8917C27.3131 48.5683 27.7572 48.3972 28.2397 48.3972C28.7208 48.3972 29.1705 48.5724 29.5073 48.8917C29.8498 49.2014 30.0383 49.6314 30.0383 50.1028C30.0383 50.5664 29.8541 50.9857 29.5059 51.3152C29.1702 51.6332 28.7205 51.8084 28.2395 51.8084Z" fill="#34495E"/>
<path d="M37.3668 46.5243C35.1929 46.5243 33.4238 48.1227 33.4238 50.0875C33.4238 52.0524 35.1929 53.6508 37.3668 53.6508C38.5282 53.6508 39.6145 53.1966 40.3471 52.4043C40.3624 52.3879 40.3691 52.3666 40.3657 52.3455C40.3623 52.3244 40.349 52.3059 40.329 52.2938L38.7463 51.3345C38.7113 51.3133 38.6641 51.3174 38.6341 51.3442C38.3077 51.6392 37.8768 51.8083 37.4507 51.8083C36.9802 51.8083 36.5548 51.6329 36.2195 51.3008C36.0737 51.1576 35.9554 50.9887 35.8601 50.7879H41.1549C41.1963 50.7879 41.2316 50.7626 41.2401 50.7273C41.2879 50.5263 41.309 50.3289 41.309 50.0876C41.3091 48.1227 39.5407 46.5243 37.3668 46.5243ZM35.8218 49.4784C35.9216 49.2416 36.0582 49.0287 36.2182 48.86C36.5588 48.5373 36.9852 48.3669 37.4509 48.3669C37.9084 48.3669 38.351 48.5461 38.6659 48.8593C38.8434 49.0325 38.9813 49.2449 39.0684 49.4785L35.8218 49.4784Z" fill="#34495E"/>
<path d="M45.9981 49.4218C45.8328 49.371 45.6692 49.3265 45.514 49.2843C44.8343 49.0996 44.4522 48.9798 44.5065 48.6656C44.5511 48.3579 44.7706 48.1953 45.1409 48.1953C45.5808 48.1953 46.1854 48.4294 46.8434 48.8544C46.8631 48.8669 46.8876 48.8718 46.9117 48.868C46.9354 48.8639 46.9565 48.8514 46.969 48.8331L47.9456 47.4476C47.9708 47.4121 47.9581 47.3653 47.9178 47.343C46.9395 46.8088 46.2497 46.5547 44.9756 46.5547C43.4575 46.5547 42.3125 47.4449 42.3125 48.6254C42.3125 49.961 43.375 50.3649 44.7639 50.7536C45.3683 50.9244 45.7642 51.0668 45.7642 51.4729C45.7642 51.7798 45.5012 51.963 45.0604 51.963C44.6043 51.963 43.8539 51.738 43.2404 51.1039C43.2245 51.0875 43.2014 51.0778 43.1767 51.0769C43.1539 51.0783 43.1286 51.085 43.1111 51.1003L41.7643 52.3338C41.732 52.3633 41.7323 52.4099 41.7647 52.4392C42.6281 53.2201 43.8761 53.6502 45.2789 53.6502C46.7514 53.6502 48.0429 52.654 48.0429 51.5183C48.0429 50.5329 47.2962 49.7683 45.9981 49.4218Z" fill="#34495E"/>
<path d="M54.2863 46.7528H52.6895V44.3924C52.6895 44.3505 52.6507 44.3163 52.6024 44.3163H50.4641C50.4163 44.3163 50.3771 44.3503 50.3771 44.3924V46.7528H48.9484C48.9005 46.7528 48.8613 46.7868 48.8613 46.8289V48.6106C48.8613 48.6526 48.9004 48.6868 48.9484 48.6868H50.3771V53.3921C50.3771 53.4341 50.4162 53.4682 50.4641 53.4682H52.6024C52.6505 53.4682 52.6895 53.4342 52.6895 53.3921V48.6868H54.2863C54.3345 48.6868 54.3734 48.6527 54.3734 48.6106V46.8289C54.3734 46.7868 54.3345 46.7528 54.2863 46.7528Z" fill="#34495E"/>
<path d="M61.2523 46.7722C60.8625 46.6497 60.4273 46.5852 59.9936 46.5852C58.9612 46.5852 58.0866 46.8879 57.5648 47.4203L57.3139 46.8031C57.3017 46.7728 57.2691 46.7525 57.232 46.7525H55.5988C55.5509 46.7525 55.5117 46.7866 55.5117 46.8287V53.3917C55.5117 53.4337 55.5508 53.4679 55.5988 53.4679H57.7034C57.7516 53.4679 57.7905 53.4339 57.7905 53.3917L57.7891 49.7811C57.9501 49.0087 58.6978 48.4481 59.567 48.4481C59.8347 48.4481 60.1023 48.5004 60.3622 48.6033C60.3833 48.6119 60.4073 48.6122 60.4295 48.6049C60.4512 48.5974 60.4691 48.5827 60.4781 48.5638L61.3031 46.8735C61.3123 46.8543 61.3123 46.8324 61.3028 46.8133C61.2933 46.7944 61.2748 46.7793 61.2523 46.7722Z" fill="#34495E"/>
<path d="M65.651 46.5549C63.3937 46.5549 61.5566 48.1465 61.5566 50.1029C61.5566 52.0592 63.3937 53.6509 65.651 53.6509C67.9565 53.6509 69.7621 52.0925 69.7621 50.1029C69.7621 48.1465 67.918 46.5549 65.651 46.5549ZM65.6677 51.8235C65.1888 51.8235 64.734 51.6443 64.4171 51.329C64.0532 51.0001 63.869 50.5875 63.869 50.1028C63.869 49.6277 64.0632 49.1981 64.4213 48.888C64.7304 48.5665 65.1849 48.382 65.6679 48.382C66.1624 48.382 66.5941 48.5532 66.9512 48.8906C67.2837 49.2056 67.4668 49.6308 67.4668 50.0876C67.4668 50.5597 67.2834 51.0014 66.9526 51.329C66.5893 51.6571 66.1571 51.8235 65.6677 51.8235Z" fill="#34495E"/>
</svg>

<svg width="80" height="70" fill="none" xmlns="http://www.w3.org/2000/svg"><path d="M80 55c0 2.285-2.117 4.138-4.729 4.138H4.73c-2.613 0-4.73-1.853-4.73-4.14V15c0-2.285 2.117-4.138 4.729-4.138H75.27c2.613 0 4.73 1.853 4.73 4.138v40z" fill="#E7E8E3"/><path opacity=".15" d="M3.362 55V15c0-2.285 2.118-4.138 4.73-4.138H4.728C2.117 10.862 0 12.715 0 15v40c0 2.285 2.117 4.138 4.729 4.138H8.09c-2.611 0-4.729-1.853-4.729-4.139z" fill="#202121"/><path d="M35.112 29.968c0-3.621 1.906-6.851 4.888-8.967-2.266-1.607-5.153-2.572-8.298-2.572-7.283 0-13.186 5.166-13.186 11.539 0 6.372 5.903 11.537 13.186 11.537 3.145 0 6.032-.964 8.298-2.571-2.982-2.116-4.888-5.346-4.888-8.966z" fill="#EA001B"/><path d="M48.298 18.43c-3.144 0-6.032.963-8.298 2.571 2.982 2.115 4.888 5.346 4.888 8.966 0 3.62-1.906 6.85-4.888 8.967 2.266 1.607 5.154 2.57 8.298 2.57 7.283 0 13.186-5.165 13.186-11.537 0-6.372-5.903-11.538-13.186-11.538z" fill="#0099DF"/><path d="M44.888 29.968c0-3.621-1.906-6.851-4.888-8.967-2.982 2.116-4.888 5.346-4.888 8.966 0 3.62 1.906 6.851 4.888 8.967 2.982-2.116 4.888-5.346 4.888-8.966z" fill="#6C6BBD"/><path d="M19.704 46.57c-.99 0-1.938.46-2.56 1.236-.644-.787-1.57-1.236-2.559-1.236-.592 0-1.247.238-1.81.657l-.268-.435a.09.09 0 00-.077-.04h-1.633c-.048 0-.087.034-.087.077v6.563c0 .042.039.076.087.076h2.02c.048 0 .087-.034.087-.076v-3.767c.225-.75.771-1.198 1.463-1.198.857 0 1.529.75 1.529 1.706v3.259c0 .042.039.076.087.076h1.886c.048 0 .087-.034.087-.076v-3.363c.032-.77.619-1.602 1.513-1.602.857 0 1.529.75 1.529 1.706v3.259c0 .042.039.076.087.076h1.886c.048 0 .087-.034.087-.076v-3.259c0-1.965-1.504-3.563-3.354-3.563zm12.543.183H30.63c-.04 0-.076.024-.085.058l-.136.504a4.214 4.214 0 00-2.44-.76c-2.174 0-3.943 1.592-3.943 3.548s1.77 3.548 3.943 3.548c.876 0 1.723-.26 2.405-.736v.477c0 .042.04.076.087.076h1.785c.048 0 .087-.034.087-.076V46.83c0-.042-.04-.076-.087-.076zm-4.008 5.055c-.482 0-.926-.17-1.281-.492-.345-.34-.534-.772-.534-1.213 0-.45.194-.892.531-1.211a1.888 1.888 0 011.285-.495c.48 0 .93.175 1.267.495.343.31.531.74.531 1.21 0 .464-.184.884-.532 1.213a1.83 1.83 0 01-1.267.493zm9.128-5.284c-2.174 0-3.943 1.599-3.943 3.563 0 1.965 1.769 3.564 3.943 3.564 1.161 0 2.248-.454 2.98-1.247a.07.07 0 00.019-.059.075.075 0 00-.037-.051l-1.583-.96a.097.097 0 00-.112.01 1.79 1.79 0 01-1.183.464 1.72 1.72 0 01-1.232-.507 1.77 1.77 0 01-.359-.513h5.295c.041 0 .077-.025.085-.06.048-.202.069-.4.069-.64 0-1.965-1.768-3.564-3.942-3.564zm-1.545 2.954c.1-.236.236-.45.396-.618a1.76 1.76 0 011.233-.493c.457 0 .9.18 1.215.492.177.173.315.386.402.62h-3.246zm10.176-.056c-.165-.051-.329-.095-.484-.138-.68-.184-1.062-.304-1.008-.618.045-.308.265-.47.635-.47.44 0 1.044.233 1.702.658a.1.1 0 00.069.014.087.087 0 00.057-.035l.977-1.385c.025-.036.012-.083-.028-.105-.978-.534-1.668-.788-2.942-.788-1.518 0-2.663.89-2.663 2.07 0 1.336 1.062 1.74 2.45 2.129.605.17 1.001.313 1.001.719 0 .307-.263.49-.704.49-.456 0-1.206-.225-1.82-.86a.093.093 0 00-.063-.026.112.112 0 00-.066.023l-1.347 1.234a.07.07 0 000 .105c.864.781 2.112 1.211 3.515 1.211 1.472 0 2.764-.996 2.764-2.132 0-.985-.747-1.75-2.045-2.096zm8.288-2.669H52.69v-2.36c0-.043-.04-.077-.088-.077h-2.138c-.048 0-.087.034-.087.076v2.36h-1.429c-.047 0-.087.035-.087.077v1.782c0 .042.04.076.087.076h1.43v4.705c0 .042.038.076.086.076h2.138c.049 0 .088-.034.088-.076v-4.705h1.596c.048 0 .087-.034.087-.076v-1.782c0-.042-.038-.076-.087-.076zm6.966.019a4.252 4.252 0 00-1.258-.187c-1.033 0-1.907.303-2.43.835l-.25-.617a.087.087 0 00-.082-.05h-1.633c-.048 0-.087.034-.087.076v6.563c0 .042.039.076.087.076h2.104c.049 0 .087-.034.087-.076v-3.61c.16-.773.908-1.334 1.777-1.334.268 0 .535.052.795.155a.098.098 0 00.067.002.083.083 0 00.05-.041l.824-1.69a.068.068 0 000-.06.085.085 0 00-.05-.042zm4.399-.217c-2.257 0-4.094 1.592-4.094 3.548s1.837 3.548 4.094 3.548c2.306 0 4.111-1.559 4.111-3.548 0-1.956-1.844-3.548-4.111-3.548zm.017 5.269c-.48 0-.934-.18-1.25-.495a1.593 1.593 0 01-.549-1.226c0-.475.194-.905.552-1.215.31-.322.764-.506 1.247-.506.494 0 .926.171 1.283.509.333.315.516.74.516 1.197 0 .472-.184.913-.514 1.241a1.863 1.863 0 01-1.285.495z" fill="#34495E"/></svg>
